!!!OTL: ICH KUMM AUS FREMDEN LANDEN
!!!ARE: Europa, Mitteleuropa, Deutschland
!!!SCT: E1062B
!!!YEM: Copyright 1995, estate of Helmut Schaffrath.
**kern
*ICvox
*Ivox
*M4/4
*k[b-]
*F:
{8f
=1
4cc
4cc
4dd
4cc
=2
4.cc
8b-
4a
8r}
{8a
=3
4a
4cc
4cc
8a
8cc
=4
4b-
4g
4f
8r}
{8c
=5
4f
4g
4a
4a
=6
4f
4g
4a
8r}
{8a
=7
4a
4cc
4cc
4a
=8
4b-
4g
4f
8r}
==
!!!AGN: Raetsel -, Brauchtums - Lied, Reigen - Tanz
!!!ONB: ESAC (Essen Associative Code) Database: ERK3
!!!AMT: simple quadruple
!!!AIN: vox
!!!EED: Helmut Schaffrath
!!!EEV: 1.0
*-
